device/image/icons/arrow-down.svg

<svg width="13" height="9" viewBox="0 0 13 9" fill="none" xmlns="http://www.w3.org/2000/svg">
<path d="M7.1 7.18193L11.8 2.68193C12.1 2.38193 12.1 1.88193 11.8 1.58193C11.5 1.28193 11 1.28193 10.7 1.58193L6.5 5.58193L2.3 1.58193C2 1.28193 1.5 1.28193 1.2 1.58193C1.1 1.78193 1 1.98193 1 2.18193C1 2.38193 1.1 2.58193 1.2 2.68193L5.9 7.18193C6.3 7.48193 6.7 7.48193 7.1 7.18193Z" fill="black"/>
</svg>

<svg width="13" height="9" fill="none" xmlns="http://www.w3.org/2000/svg"><path d="m7.1 7.18 4.7-4.5c.3-.3.3-.8 0-1.1-.3-.3-.8-.3-1.1 0l-4.2 4-4.2-4c-.3-.3-.8-.3-1.1 0-.1.2-.2.4-.2.6 0 .2.1.4.2.5l4.7 4.5c.4.3.8.3 1.2 0Z" fill="#000"/></svg>
